src/images/HTML5_logo_weiss.svg

<?xml version="1.0" encoding="UTF-8" standalone="no"?>
<svg
   width="100%"
   height="100%"
   viewBox="0 0 30 40"
   version="1.1"
   xml:space="preserve"
   style="fill-rule:evenodd;clip-rule:evenodd;stroke-linejoin:round;stroke-miterlimit:2;"
   id="svg170"
   sodipodi:docname="HTML5_logo_weiss.svg"
   inkscape:version="1.2.1 (ef4d3fba62, 2022-07-19, custom)"
   xmlns:inkscape="http://www.inkscape.org/namespaces/inkscape"
   xmlns:sodipodi="http://sodipodi.sourceforge.net/DTD/sodipodi-0.dtd"
   xmlns="http://www.w3.org/2000/svg"
   xmlns:svg="http://www.w3.org/2000/svg"><defs
   id="defs174">
        
        
        
        
        
    
            
        
            
        
            
        
            
        </defs><sodipodi:namedview
   id="namedview172"
   pagecolor="#505050"
   bordercolor="#eeeeee"
   borderopacity="1"
   inkscape:showpageshadow="0"
   inkscape:pageopacity="0"
   inkscape:pagecheckerboard="0"
   inkscape:deskcolor="#505050"
   showgrid="false"
   inkscape:zoom="14.389623"
   inkscape:cx="29.152953"
   inkscape:cy="29.535173"
   inkscape:window-width="1920"
   inkscape:window-height="1016"
   inkscape:window-x="0"
   inkscape:window-y="0"
   inkscape:window-maximized="1"
   inkscape:current-layer="svg170" />
    <g
   transform="matrix(0.078125,0,0,0.078125,-4.999999,0)"
   id="g150"
   style="fill:#ffffff">
            <path
   d="m 108.4,0 h 23 v 22.8 h 21.2 V 0 h 23 v 69 h -23 V 46 h -21 V 69 H 108.4 M 206,23 H 185.7 V 0 h 63.7 V 23 H 229 V 69 H 206 M 259.5,0 h 24.1 L 298.4,24.3 313.2,0 h 24.1 v 69 h -23 V 34.8 L 298.2,59.6 282.1,34.8 V 69 H 259.5 M 348.7,0 h 23 v 46.2 h 32.6 V 69 h -55.6"
   style="fill-rule:nonzero;fill:#ffffff"
   id="path148" />
        </g><path
   id="path152"
   style="fill:#ffffff;fill-rule:nonzero;stroke-width:0.078125"
   d="M 0.828125 7.859375 L 3.40625 36.796875 L 14.976562 40 L 26.59375 36.78125 L 29.171875 7.859375 L 0.828125 7.859375 z M 6.09375 13.773438 L 14.984375 13.773438 L 15 13.773438 L 23.875 13.773438 L 23.546875 17.320312 L 15 17.320312 L 14.984375 17.320312 L 9.984375 17.320312 L 10.3125 20.953125 L 14.984375 20.953125 L 15 20.953125 L 23.226562 20.953125 L 22.25 31.84375 L 15 33.855469 L 15 33.875 L 7.71875 31.84375 L 7.21875 26.273438 L 10.78125 26.273438 L 11.03125 29.109375 L 14.992188 30.169922 L 18.945312 29.109375 L 19.359375 24.5 L 14.984375 24.5 L 14.984375 24.492188 L 7.0625 24.492188 L 6.09375 13.773438 z " />
</svg>

<svg xmlns="http://www.w3.org/2000/svg" xml:space="preserve" style="fill-rule:evenodd;clip-rule:evenodd;stroke-linejoin:round;stroke-miterlimit:2" viewBox="0 0 30 40"><g style="fill:#fff"><path d="M108.4 0h23v22.8h21.2V0h23v69h-23V46h-21v23h-23.2M206 23h-20.3V0h63.7v23H229v46h-23m53.5-69h24.1l14.8 24.3L313.2 0h24.1v69h-23V34.8l-16.1 24.8-16.1-24.8V69h-22.6m89.2-69h23v46.2h32.6V69h-55.6" style="fill-rule:nonzero;fill:#fff" transform="matrix(.07813 0 0 .07813 -5 0)"/></g><path d="m.828 7.86 2.578 28.937L14.976 40l11.618-3.219L29.172 7.86H.828zm5.266 5.913h17.781l-.328 3.547H9.984l.329 3.633H23.227l-.977 10.89L15 33.856v.02l-7.281-2.031-.5-5.57h3.562l.25 2.835 3.961 1.06 3.953-1.06.414-4.609h-4.375v-.008H7.063l-.97-10.719z" style="fill:#fff;fill-rule:nonzero;stroke-width:.078125"/></svg>
